packages/icons/src/lib/svgs/google.svg

<svg
        aria-hidden="true"
        data-testid="test-icon"
        fill="none"
        
        
        viewBox="0 0 24 24"
        
        xmlns="http://www.w3.org/2000/svg"
    >
        <title>google icon</title>
        <path
            fillRule="evenodd"
            clipRule="evenodd"
            d="M20.64 12.2004C20.64 11.5634 20.583 10.9494 20.476 10.3604H12V13.8414H16.844C16.635 14.9664 16.001 15.9194 15.048 16.5584V18.8164H17.956C19.658 17.2494 20.64 14.9424 20.64 12.2014V12.2004Z"
            fill='#4285F4'
        />
        <path
            fillRule="evenodd"
            clipRule="evenodd"
            d="M12.003 21C14.433 21 16.47 20.194 17.959 18.82L15.05 16.56C14.244 17.1 13.214 17.42 12.003 17.42C9.65896 17.42 7.67496 15.836 6.96696 13.709H3.95996V16.041C5.43996 18.983 8.48496 21 12.003 21Z"
            fill='#34A853'
        />
        <path
            fillRule="evenodd"
            clipRule="evenodd"
            d="M6.964 13.712C6.784 13.172 6.682 12.595 6.682 12.002C6.682 11.409 6.784 10.832 6.964 10.292V7.95996H3.957C3.347 9.17496 3 10.55 3 12.002C3 13.454 3.348 14.829 3.957 16.044L6.964 13.712Z"
            fill='#FBBC05'
        />
        <path
            fillRule="evenodd"
            clipRule="evenodd"
            d="M12.003 6.58C13.324 6.58 14.511 7.034 15.443 7.925L18.025 5.345C16.464 3.891 14.428 3 12.002 3C8.48496 3 5.43996 5.017 3.95996 7.958L6.96696 10.29C7.67496 8.163 9.65896 6.58 12.003 6.58Z"
            fill='#EA4335'
        />
    </svg>

<svg aria-hidden="true" data-testid="test-icon" fill="none" viewBox="0 0 24 24" xmlns="http://www.w3.org/2000/svg"><path fill-rule="evenodd" clip-rule="evenodd" d="M20.64 12.2c0-.637-.057-1.25-.164-1.84H12v3.481h4.844a4.146 4.146 0 01-1.796 2.717v2.258h2.908c1.702-1.567 2.684-3.874 2.684-6.615z" fill="#4285F4"/><path fill-rule="evenodd" clip-rule="evenodd" d="M12.003 21c2.43 0 4.467-.806 5.956-2.18l-2.909-2.26c-.806.54-1.836.86-3.047.86-2.344 0-4.328-1.584-5.036-3.711H3.96v2.332A8.996 8.996 0 0012.003 21z" fill="#34A853"/><path fill-rule="evenodd" clip-rule="evenodd" d="M6.964 13.712a5.41 5.41 0 01-.282-1.71c0-.593.102-1.17.282-1.71V7.96H3.957a9.005 9.005 0 000 8.084l3.007-2.332z" fill="#FBBC05"/><path fill-rule="evenodd" clip-rule="evenodd" d="M12.003 6.58c1.321 0 2.508.454 3.44 1.345l2.582-2.58C16.464 3.891 14.428 3 12.002 3A8.996 8.996 0 003.96 7.958l3.007 2.332c.708-2.127 2.692-3.71 5.036-3.71z" fill="#EA4335"/></svg>
